icons/term-pending-status.svg

<svg
  xmlns="http://www.w3.org/2000/svg"
  viewBox="0 0 500 500"
  width="500"
  height="500"
  fill="#ffffff"
>
  <path d="M372.7 366a14.8 14.8 0 0 0 29.6-.1 14.8 14.8 0 1 0-29.6.1z" />
  <path d="M340.5 351.1a14.9 14.9 0 0 0-14.7 14.9 14.8 14.8 0 0 0 29.6-.1 14.9 14.9 0 0 0-14.9-14.8z" />
  <path d="M293.6 351.1a14.9 14.9 0 0 0-14.7 14.9 14.8 14.8 0 0 0 29.6-.1 14.9 14.9 0 0 0-14.9-14.8z" />
  <path d="M214.9 69.3A17.8 17.8 0 0 0 199 79.5h31.8a17.6 17.6 0 0 0-15.9-10.2z" />
  <path d="M250 5C114.7 5 5 114.7 5 250s109.7 245 245 245 245-109.7 245-245S385.3 5 250 5zM111.4 418.2a31.7 31.7 0 0 1-31.8-31.7V115a31.8 31.8 0 0 1 31.8-31.8H183a32.1 32.1 0 0 1 63.7 0h66.6a31.8 31.8 0 0 1 31.8 31.8v161.8c-2.7-.2-5.8-.4-8.1-.4s-4.8.2-7.2.4V115a16.5 16.5 0 0 0-16.5-16.5H111.4A16.6 16.6 0 0 0 94.8 115v271.5a16.7 16.7 0 0 0 16.6 16.5h142a97.3 97.3 0 0 0 8.3 15.2zm134.9-47.6h-65.9a7.7 7.7 0 0 1-7.6-7.7v-.8a7.5 7.5 0 0 1 7.7-7.5h66.6a90.8 90.8 0 0 0-1 12.8c0 1 .1 2.1.2 3.2zm-65.7-34.9a8 8 0 0 1 0-15.9h79a90.2 90.2 0 0 0-7.8 15.9zm.2-61.9a8.1 8.1 0 0 1 0-16.1h90.9a8.1 8.1 0 0 1 0 16.1zm-.2-131.6a8 8 0 0 1 0-15.9h127.7a8 8 0 0 1 0 15.9zm91.1 34.9h-90.9a8.1 8.1 0 0 1 0-16.1h90.9a8.1 8.1 0 0 1 0 16.1zm-91.1 61.8a7.9 7.9 0 0 1 0-15.8h127.8a7.9 7.9 0 0 1-.1 15.8zm-72.2 34.9v-50.7h50.7v50.7zm50.7 46v50.8h-50.7v-50.8zm-50.7-142.7v-50.8h50.7v50.8zm312 189a79 79 0 1 1 0-.2z" />
</svg>

<svg xmlns="http://www.w3.org/2000/svg" viewBox="0 0 500 500">
  <g id="term-pending-status">
    <path id="circle3" d="M372.7,366a14.8,14.8,0,0,0,29.6-.1h0a14.8,14.8,0,1,0-29.6.1Z"/>
    <path id="circle2" d="M340.5,351.1A14.9,14.9,0,0,0,325.8,366a14.8,14.8,0,0,0,29.6-.1h0A14.9,14.9,0,0,0,340.5,351.1Z"/>
    <path id="circle1" d="M293.6,351.1A14.9,14.9,0,0,0,278.9,366a14.8,14.8,0,0,0,29.6-.1h0A14.9,14.9,0,0,0,293.6,351.1Z"/>
    <path id="inside-outline" d="M214.9,69.3A17.8,17.8,0,0,0,199,79.5h31.8A17.6,17.6,0,0,0,214.9,69.3Z"/>
    <path id="outline" d="M250,5C114.7,5,5,114.7,5,250S114.7,495,250,495,495,385.3,495,250,385.3,5,250,5ZM111.4,418.2a31.7,31.7,0,0,1-31.8-31.7V115a31.8,31.8,0,0,1,31.8-31.8H183a32.1,32.1,0,0,1,63.7,0h66.6A31.8,31.8,0,0,1,345.1,115V276.8c-2.7-.2-5.8-.4-8.1-.4s-4.8.2-7.2.4V115a16.5,16.5,0,0,0-16.5-16.5H111.4A16.6,16.6,0,0,0,94.8,115V386.5A16.7,16.7,0,0,0,111.4,403h142a97.3,97.3,0,0,0,8.3,15.2Zm134.9-47.6H180.4a7.7,7.7,0,0,1-7.6-7.7v-.8h0a7.5,7.5,0,0,1,7.7-7.5h66.6a90.8,90.8,0,0,0-1,12.8C246.1,368.4,246.2,369.5,246.3,370.6Zm-65.7-34.9a8,8,0,0,1,0-15.9h79a90.2,90.2,0,0,0-7.8,15.9Zm.2-61.9a8.1,8.1,0,0,1,0-16.1h90.9a8.1,8.1,0,0,1,0,16.1Zm-.2-131.6a8,8,0,0,1,0-15.9H308.3a8,8,0,0,1,0,15.9Zm91.1,34.9H180.8a8.1,8.1,0,0,1,0-16.1h90.9a8.1,8.1,0,0,1,0,16.1Zm-91.1,61.8a7.9,7.9,0,0,1,0-15.8H308.4a7.9,7.9,0,0,1-.1,15.8Zm-72.2,34.9V223.1h50.7v50.7Zm50.7,46v50.8H108.4V319.8ZM108.4,177.1V126.3h50.7v50.8Zm312,189a79,79,0,1,1,0-.2Z"/>
  </g>
</svg>
